X:1
T: Two Scotts
C:Bruce Shawyer
R:Reel
Q:232
K:G
M:4/4
L:1/8
GA|:"G"B2G2 G2GA|B2G2 G2B2|"D7"A2D2 D2FG|A2D2 D2GA|
"G"B2G2 G2GA|B2G2 "Em"G2B2|"D7"A2A2 D2EF|"G"G4 G2d2:|
|:"G"g2g2 g2dB|"C"g2g2 g2ec|"G"d2d2 d2BG|"D7"A2A2 A2d2|
"G"g2g2 g2dB|"C"g2g2 "Am"g2e2|"G"dcBd "D7"cBAc|1"G"B2G2 G2d2:|2"G"G4 G2||
